src/img/icons/brands/youtube.svg

<svg width="576" height="512" viewBox="0 0 576 512" fill="none" xmlns="http://www.w3.org/2000/svg">
<path d="M549.655 124.083C543.374 100.433 524.868 81.807 501.371 75.486C458.781 64 288 64 288 64C288 64 117.22 64 74.6291 75.486C51.1321 81.808 32.6261 100.433 26.3451 124.083C14.9331 166.95 14.9331 256.388 14.9331 256.388C14.9331 256.388 14.9331 345.826 26.3451 388.693C32.6261 412.343 51.1321 430.193 74.6291 436.514C117.22 448 288 448 288 448C288 448 458.78 448 501.371 436.514C524.868 430.193 543.374 412.343 549.655 388.693C561.067 345.826 561.067 256.388 561.067 256.388C561.067 256.388 561.067 166.95 549.655 124.083V124.083ZM232.145 337.591V175.185L374.884 256.39L232.145 337.591V337.591Z" fill="white"/>
</svg>

<svg xmlns="http://www.w3.org/2000/svg" viewBox="0 0 576 512"><!--! Font Awesome Pro 6.1.1 by @fontawesome - https://fontawesome.com License - https://fontawesome.com/license (Commercial License) Copyright 2022 Fonticons, Inc. --><path d="M549.655 124.083c-6.281-23.65-24.787-42.276-48.284-48.597C458.781 64 288 64 288 64S117.22 64 74.629 75.486c-23.497 6.322-42.003 24.947-48.284 48.597-11.412 42.867-11.412 132.305-11.412 132.305s0 89.438 11.412 132.305c6.281 23.65 24.787 41.5 48.284 47.821C117.22 448 288 448 288 448s170.78 0 213.371-11.486c23.497-6.321 42.003-24.171 48.284-47.821 11.412-42.867 11.412-132.305 11.412-132.305s0-89.438-11.412-132.305zm-317.51 213.508V175.185l142.739 81.205-142.739 81.201z"/></svg>
